static/cards/FrenchDeck/cyberwave/card_clubs_06.svg

<svg xmlns="http://www.w3.org/2000/svg" width="822" height="1122" fill="none" viewBox="0 0 822 1122"><rect width="822" height="1122" fill="#1a0033" rx="20"/><g fill="#fff066" clip-path="url(#a)"><path d="M120.57 160.92q-14.976 0-24.192-9.216-9.088-9.216-9.088-29.824 0-19.456 5.248-30.976 5.248-11.648 13.312-16.256t17.408-4.608q7.168 0 12.928 1.536 5.888 1.536 9.856 4.224.768.512.896.896t-.256 1.152l-1.664 2.816q-.384.768-.896.768-.256 0-.896-.384-8.064-5.12-20.096-5.12t-19.456 8.96q-7.296 8.832-9.088 25.344 4.352-6.144 11.264-9.088t16.64-2.944q9.344 0 16.64 3.456t11.392 10.24q4.224 6.656 4.224 16 0 16.256-9.088 24.704-8.96 8.32-25.088 8.32m0-5.888q27.52 0 27.52-27.136 0-11.904-7.04-17.792-6.912-5.888-19.712-5.888-6.016 0-12.416 2.688-6.272 2.56-10.496 7.68t-4.224 12.16q0 14.208 7.424 21.248t18.944 7.04M141.309 231.337v-.004c0-11.782-9.224-21.333-20.603-21.333s-20.603 9.551-20.603 21.333c-11.379 0-20.603 9.552-20.603 21.334S88.724 274 100.103 274c10.386 0 18.977-7.957 20.397-18.305C121.92 266.043 130.511 274 140.897 274c11.379 0 20.603-9.551 20.603-21.333 0-11.64-9.002-21.102-20.191-21.33"/><rect width="5" height="33" x="118.5" y="251" rx="2.5"/><path d="M693.43 957.08q14.976 0 24.192 9.216 9.088 9.216 9.088 29.824c0 12.97-1.749 23.3-5.248 30.98-3.499 7.76-7.936 13.18-13.312 16.25s-11.179 4.61-17.408 4.61c-4.779 0-9.088-.51-12.928-1.54-3.925-1.02-7.211-2.43-9.856-4.22q-.768-.51-.896-.9c-.085-.25 0-.64.256-1.15l1.664-2.81c.256-.52.555-.77.896-.77.171 0 .469.13.896.38 5.376 3.42 12.075 5.12 20.096 5.12s14.507-2.98 19.456-8.96c4.864-5.89 7.893-14.33 9.088-25.34q-4.352 6.135-11.264 9.09-6.912 2.94-16.64 2.94c-6.229 0-11.776-1.15-16.64-3.46-4.864-2.3-8.661-5.71-11.392-10.24-2.816-4.43-4.224-9.767-4.224-15.996q0-16.256 9.088-24.704 8.96-8.32 25.088-8.32m0 5.888q-27.52 0-27.52 27.136 0 11.902 7.04 17.796 6.912 5.88 19.712 5.88c4.011 0 8.149-.89 12.416-2.68q6.272-2.565 10.496-7.68c2.816-3.42 4.224-7.471 4.224-12.164q0-14.208-7.424-21.248t-18.944-7.04M672.691 886.663v.004c0 11.782 9.224 21.333 20.603 21.333s20.603-9.551 20.603-21.333c11.379 0 20.603-9.552 20.603-21.334S725.276 844 713.897 844c-10.386 0-18.977 7.957-20.397 18.305C692.08 851.957 683.489 844 673.103 844c-11.379 0-20.603 9.551-20.603 21.333 0 11.64 9.002 21.102 20.191 21.33"/><rect width="5" height="33" x="695.5" y="867" rx="2.5" transform="rotate(-180 695.5 867)"/></g><path stroke="#fff066" stroke-width="8" d="M411.779 601.935c13.001 0 23.889 11.163 23.889 25.377v3.923l3.918.081c12.786.265 23.414 11.333 23.414 25.372 0 14.214-10.889 25.377-23.89 25.377-11.873 0-21.966-9.289-23.646-21.741h-7.928c-1.68 12.452-11.773 21.741-23.646 21.741-13.001 0-23.89-11.163-23.89-25.377s10.889-25.376 23.89-25.376h4v-4c0-14.214 10.889-25.377 23.889-25.377Z"/><path fill="#fff066" d="M408.307 664.026a3.041 3.041 0 1 1 6.082 0v30.933a3.041 3.041 0 1 1-6.082 0z"/><path stroke="#fff066" stroke-width="8" d="M579.779 601.935c13.001 0 23.889 11.163 23.889 25.377v3.923l3.918.081c12.786.265 23.414 11.333 23.414 25.372 0 14.214-10.889 25.377-23.89 25.377-11.873 0-21.966-9.289-23.646-21.741h-7.928c-1.68 12.452-11.773 21.741-23.646 21.741-13.001 0-23.89-11.163-23.89-25.377s10.889-25.376 23.89-25.376h4v-4c0-14.214 10.889-25.377 23.889-25.377Z"/><path fill="#fff066" d="M576.307 664.026a3.041 3.041 0 1 1 6.082 0v30.933a3.041 3.041 0 1 1-6.082 0z"/><path stroke="#fff066" stroke-width="8" d="M243.779 601.935c13.001 0 23.889 11.163 23.889 25.377v3.923l3.918.081c12.786.265 23.414 11.333 23.414 25.372 0 14.214-10.889 25.377-23.89 25.377-11.873 0-21.966-9.289-23.646-21.741h-7.928c-1.68 12.452-11.773 21.741-23.646 21.741-13.001 0-23.89-11.163-23.89-25.377s10.889-25.376 23.89-25.376h4v-4c0-14.214 10.889-25.377 23.889-25.377Z"/><path fill="#fff066" d="M240.307 664.026a3.041 3.041 0 1 1 6.082 0v30.933a3.041 3.041 0 1 1-6.082 0z"/><path stroke="#fff066" stroke-width="8" d="M579.779 439.935c13.001 0 23.889 11.163 23.889 25.377v3.923l3.918.081c12.786.265 23.414 11.333 23.414 25.372 0 14.214-10.889 25.377-23.89 25.377-11.873 0-21.966-9.289-23.646-21.741h-7.928c-1.68 12.452-11.773 21.741-23.646 21.741-13.001 0-23.89-11.163-23.89-25.377s10.889-25.376 23.89-25.376h4v-4c0-14.214 10.889-25.377 23.889-25.377Z"/><path fill="#fff066" d="M576.307 502.026a3.041 3.041 0 1 1 6.082 0v30.933a3.041 3.041 0 1 1-6.082 0z"/><path stroke="#fff066" stroke-width="8" d="M243.779 439.935c13.001 0 23.889 11.163 23.889 25.377v3.923l3.918.081c12.786.265 23.414 11.333 23.414 25.372 0 14.214-10.889 25.377-23.89 25.377-11.873 0-21.966-9.289-23.646-21.741h-7.928c-1.68 12.452-11.773 21.741-23.646 21.741-13.001 0-23.89-11.163-23.89-25.377s10.889-25.376 23.89-25.376h4v-4c0-14.214 10.889-25.377 23.889-25.377Z"/><path fill="#fff066" d="M240.307 502.026a3.041 3.041 0 1 1 6.082 0v30.933a3.041 3.041 0 1 1-6.082 0z"/><path stroke="#fff066" stroke-width="8" d="M411.779 439.935c13.001 0 23.889 11.163 23.889 25.377v3.923l3.918.081c12.786.265 23.414 11.333 23.414 25.372 0 14.214-10.889 25.377-23.89 25.377-11.873 0-21.966-9.289-23.646-21.741h-7.928c-1.68 12.452-11.773 21.741-23.646 21.741-13.001 0-23.89-11.163-23.89-25.377s10.889-25.376 23.89-25.376h4v-4c0-14.214 10.889-25.377 23.889-25.377Z"/><path fill="#fff066" d="M408.307 502.026a3.041 3.041 0 1 1 6.082 0v30.933a3.041 3.041 0 1 1-6.082 0z"/><defs><clipPath id="a"><path fill="#fff" d="M46 48h722v1022H46z"/></clipPath></defs></svg>

<svg width="822" height="1122" viewBox="0 0 822 1122" fill="none" xmlns="http://www.w3.org/2000/svg">
<rect width="822" height="1122" rx="20" fill="#1A0033"/>
<g clip-path="url(#clip0_31_1341)">
<path d="M120.57 160.92C110.586 160.92 102.522 157.848 96.378 151.704C90.3193 145.56 87.29 135.619 87.29 121.88C87.29 108.909 89.0393 98.584 92.538 90.904C96.0367 83.1387 100.474 77.72 105.85 74.648C111.226 71.576 117.029 70.04 123.258 70.04C128.037 70.04 132.346 70.552 136.186 71.576C140.111 72.6 143.397 74.008 146.042 75.8C146.554 76.1413 146.853 76.44 146.938 76.696C147.023 76.952 146.938 77.336 146.682 77.848L145.018 80.664C144.762 81.176 144.463 81.432 144.122 81.432C143.951 81.432 143.653 81.304 143.226 81.048C137.85 77.6347 131.151 75.928 123.13 75.928C115.109 75.928 108.623 78.9147 103.674 84.888C98.81 90.776 95.7807 99.224 94.586 110.232C97.4873 106.136 101.242 103.107 105.85 101.144C110.458 99.1813 116.005 98.2 122.49 98.2C128.719 98.2 134.266 99.352 139.13 101.656C143.994 103.96 147.791 107.373 150.522 111.896C153.338 116.333 154.746 121.667 154.746 127.896C154.746 138.733 151.717 146.968 145.658 152.6C139.685 158.147 131.322 160.92 120.57 160.92ZM120.57 155.032C138.917 155.032 148.09 145.987 148.09 127.896C148.09 119.96 145.743 114.029 141.05 110.104C136.442 106.179 129.871 104.216 121.338 104.216C117.327 104.216 113.189 105.112 108.922 106.904C104.741 108.611 101.242 111.171 98.426 114.584C95.61 117.997 94.202 122.051 94.202 126.744C94.202 136.216 96.6767 143.299 101.626 147.992C106.575 152.685 112.89 155.032 120.57 155.032Z" fill="#FFF066"/>
<path d="M141.309 231.337C141.309 231.336 141.309 231.335 141.309 231.333C141.309 219.551 132.085 210 120.706 210C109.327 210 100.103 219.551 100.103 231.333C88.7243 231.333 79.5 240.885 79.5 252.667C79.5 264.449 88.7243 274 100.103 274C110.489 274 119.08 266.043 120.5 255.695C121.92 266.043 130.511 274 140.897 274C152.276 274 161.5 264.449 161.5 252.667C161.5 241.027 152.498 231.565 141.309 231.337Z" fill="#FFF066"/>
<rect x="118.5" y="251" width="5" height="33" rx="2.5" fill="#FFF066"/>
<path d="M693.43 957.08C703.414 957.08 711.478 960.152 717.622 966.296C723.681 972.44 726.71 982.381 726.71 996.12C726.71 1009.09 724.961 1019.42 721.462 1027.1C717.963 1034.86 713.526 1040.28 708.15 1043.35C702.774 1046.42 696.971 1047.96 690.742 1047.96C685.963 1047.96 681.654 1047.45 677.814 1046.42C673.889 1045.4 670.603 1043.99 667.958 1042.2C667.446 1041.86 667.147 1041.56 667.062 1041.3C666.977 1041.05 667.062 1040.66 667.318 1040.15L668.982 1037.34C669.238 1036.82 669.537 1036.57 669.878 1036.57C670.049 1036.57 670.347 1036.7 670.774 1036.95C676.15 1040.37 682.849 1042.07 690.87 1042.07C698.891 1042.07 705.377 1039.09 710.326 1033.11C715.19 1027.22 718.219 1018.78 719.414 1007.77C716.513 1011.86 712.758 1014.89 708.15 1016.86C703.542 1018.82 697.995 1019.8 691.51 1019.8C685.281 1019.8 679.734 1018.65 674.87 1016.34C670.006 1014.04 666.209 1010.63 663.478 1006.1C660.662 1001.67 659.254 996.333 659.254 990.104C659.254 979.267 662.283 971.032 668.342 965.4C674.315 959.853 682.678 957.08 693.43 957.08ZM693.43 962.968C675.083 962.968 665.91 972.013 665.91 990.104C665.91 998.04 668.257 1003.97 672.95 1007.9C677.558 1011.82 684.129 1013.78 692.662 1013.78C696.673 1013.78 700.811 1012.89 705.078 1011.1C709.259 1009.39 712.758 1006.83 715.574 1003.42C718.39 1000 719.798 995.949 719.798 991.256C719.798 981.784 717.323 974.701 712.374 970.008C707.425 965.315 701.11 962.968 693.43 962.968Z" fill="#FFF066"/>
<path d="M672.691 886.663C672.691 886.664 672.691 886.665 672.691 886.667C672.691 898.449 681.915 908 693.294 908C704.673 908 713.897 898.449 713.897 886.667C725.276 886.667 734.5 877.115 734.5 865.333C734.5 853.551 725.276 844 713.897 844C703.511 844 694.92 851.957 693.5 862.305C692.08 851.957 683.489 844 673.103 844C661.724 844 652.5 853.551 652.5 865.333C652.5 876.973 661.502 886.435 672.691 886.663Z" fill="#FFF066"/>
<rect x="695.5" y="867" width="5" height="33" rx="2.5" transform="rotate(-180 695.5 867)" fill="#FFF066"/>
</g>
<path d="M411.779 601.935C424.78 601.935 435.668 613.098 435.668 627.312V631.235L439.586 631.316C452.372 631.581 463 642.649 463 656.688C463 670.902 452.111 682.065 439.11 682.065C427.237 682.065 417.144 672.776 415.464 660.324H407.536C405.856 672.776 395.763 682.065 383.89 682.065C370.889 682.065 360 670.902 360 656.688C360 642.475 370.889 631.312 383.89 631.312H387.89V627.312C387.89 613.098 398.779 601.935 411.779 601.935Z" stroke="#FFF066" stroke-width="8"/>
<path d="M408.307 664.026C408.307 662.347 409.668 660.985 411.348 660.985C413.028 660.985 414.389 662.347 414.389 664.026V694.959C414.389 696.638 413.028 698 411.348 698C409.668 698 408.307 696.638 408.307 694.959V664.026Z" fill="#FFF066"/>
<path d="M579.779 601.935C592.78 601.935 603.668 613.098 603.668 627.312V631.235L607.586 631.316C620.372 631.581 631 642.649 631 656.688C631 670.902 620.111 682.065 607.11 682.065C595.237 682.065 585.144 672.776 583.464 660.324H575.536C573.856 672.776 563.763 682.065 551.89 682.065C538.889 682.065 528 670.902 528 656.688C528 642.475 538.889 631.312 551.89 631.312H555.89V627.312C555.89 613.098 566.779 601.935 579.779 601.935Z" stroke="#FFF066" stroke-width="8"/>
<path d="M576.307 664.026C576.307 662.347 577.668 660.985 579.348 660.985C581.028 660.985 582.389 662.347 582.389 664.026V694.959C582.389 696.638 581.028 698 579.348 698C577.668 698 576.307 696.638 576.307 694.959V664.026Z" fill="#FFF066"/>
<path d="M243.779 601.935C256.78 601.935 267.668 613.098 267.668 627.312V631.235L271.586 631.316C284.372 631.581 295 642.649 295 656.688C295 670.902 284.111 682.065 271.11 682.065C259.237 682.065 249.144 672.776 247.464 660.324H239.536C237.856 672.776 227.763 682.065 215.89 682.065C202.889 682.065 192 670.902 192 656.688C192 642.475 202.889 631.312 215.89 631.312H219.89V627.312C219.89 613.098 230.779 601.935 243.779 601.935Z" stroke="#FFF066" stroke-width="8"/>
<path d="M240.307 664.026C240.307 662.347 241.668 660.985 243.348 660.985C245.028 660.985 246.389 662.347 246.389 664.026V694.959C246.389 696.638 245.028 698 243.348 698C241.668 698 240.307 696.638 240.307 694.959V664.026Z" fill="#FFF066"/>
<path d="M579.779 439.935C592.78 439.935 603.668 451.098 603.668 465.312V469.235L607.586 469.316C620.372 469.581 631 480.649 631 494.688C631 508.902 620.111 520.065 607.11 520.065C595.237 520.065 585.144 510.776 583.464 498.324H575.536C573.856 510.776 563.763 520.065 551.89 520.065C538.889 520.065 528 508.902 528 494.688C528 480.475 538.889 469.312 551.89 469.312H555.89V465.312C555.89 451.098 566.779 439.935 579.779 439.935Z" stroke="#FFF066" stroke-width="8"/>
<path d="M576.307 502.026C576.307 500.347 577.668 498.985 579.348 498.985C581.028 498.985 582.389 500.347 582.389 502.026V532.959C582.389 534.638 581.028 536 579.348 536C577.668 536 576.307 534.638 576.307 532.959V502.026Z" fill="#FFF066"/>
<path d="M243.779 439.935C256.78 439.935 267.668 451.098 267.668 465.312V469.235L271.586 469.316C284.372 469.581 295 480.649 295 494.688C295 508.902 284.111 520.065 271.11 520.065C259.237 520.065 249.144 510.776 247.464 498.324H239.536C237.856 510.776 227.763 520.065 215.89 520.065C202.889 520.065 192 508.902 192 494.688C192 480.475 202.889 469.312 215.89 469.312H219.89V465.312C219.89 451.098 230.779 439.935 243.779 439.935Z" stroke="#FFF066" stroke-width="8"/>
<path d="M240.307 502.026C240.307 500.347 241.668 498.985 243.348 498.985C245.028 498.985 246.389 500.347 246.389 502.026V532.959C246.389 534.638 245.028 536 243.348 536C241.668 536 240.307 534.638 240.307 532.959V502.026Z" fill="#FFF066"/>
<path d="M411.779 439.935C424.78 439.935 435.668 451.098 435.668 465.312V469.235L439.586 469.316C452.372 469.581 463 480.649 463 494.688C463 508.902 452.111 520.065 439.11 520.065C427.237 520.065 417.144 510.776 415.464 498.324H407.536C405.856 510.776 395.763 520.065 383.89 520.065C370.889 520.065 360 508.902 360 494.688C360 480.475 370.889 469.312 383.89 469.312H387.89V465.312C387.89 451.098 398.779 439.935 411.779 439.935Z" stroke="#FFF066" stroke-width="8"/>
<path d="M408.307 502.026C408.307 500.347 409.668 498.985 411.348 498.985C413.028 498.985 414.389 500.347 414.389 502.026V532.959C414.389 534.638 413.028 536 411.348 536C409.668 536 408.307 534.638 408.307 532.959V502.026Z" fill="#FFF066"/>
<defs>
<clipPath id="clip0_31_1341">
<rect width="722" height="1022" fill="white" transform="translate(46 48)"/>
</clipPath>
</defs>
</svg>
